!!!!SEGMENT: pl-sa--481-a-viii-121--044_anonim--marsz.krn
!!!cenid: 18xx:415
!!!COM: Anonim
!!!COM-rismid: pe30004985
!!!CDT:
!!!CNT:
!!!OTL: Marsz
!!!PDT:
!!!AGN: Secular; March
!!!SMS-siglum: PL-SA
!!!SMS-shelfmark: 481/A VIII 121
!!!SMS-shelfwork: 044 W
!!!SMS-variant:
!!!SMS-altvar:
!!!NIFC-rismid: 1001070721
!!!URL-scan: http://bc.bdsandomierz.pl/dlibra/publication/1212/edition/1171/content
!!!ONB-nifc: Str. 31, s. 3-5
**kern	**kern
*part1	*part1
*staff2	*staff1
*I"Piano	*
*I'P-no	*
*clefF4	*clefG2
*k[]	*k[]
*C:	*C:
*M2/4	*M2/4
=1	=1
!	!LO:TX:b:t=Marsz
!	!LO:TX:a:t=P:problem:pojedyńcze nuty kaudy z prawej strony. Głównie ćwierćnuty
8cL 8G 8E 8C\	8ggL 8ee\
8cJ 8G 8E 8C\	16ggL 16ee\
.	16ggJJ 16ee\
8c 8G 8E 8C\	16cccLL 16aa\
.	16bb 16gg\
8r	16aa 16ff\
.	16ggJJ 16ee\
=2	=2
8cL 8G 8E 8C\	8ggL 8ee\
8cJ 8G 8E 8C\	16eeL 16cc\
.	16ffJJ 16dd\
4c 4G 4E 4C\	4gg 4ee\
=3	=3
*clefG2	*
16aLL 16f/	16aaLL 16ff\
16b 16g/	16bb 16gg\
16cc 16a/	16ccc 16aa\
16ccJJ 16a/	16cccJJ 16aa\
16ddLL 16b/	16dddLL 16bb\
16cc 16a/	16ccc 16aa\
16b 16g/	16bb 16gg\
16aJJ 16f/	16aaJJ 16ff\
=4	=4
16aLL 16f/	16aaLL 16ff\
16g 16e/	16gg 16ee\
16g 16e/	16gg 16ee\
16gJJ 16e/	16ggJJ 16ee\
4g 4e 4c/	4gg 4ee\
=5	=5
*clefF4	*
8GL 8D 8BB 8GG\	8bbL 8ff 8dd\
8GJ 8D 8BB 8GG\	16bbL 16ff 16dd\
.	16bbJJ 16ff 16dd\
8G 8D 8BB 8GG\	8bbL 8ff 8dd\
!	!LO:TX:a:t=P:problem:niejednoznaczny zapis
8r	32cccLL 32gg 32ee\
.	32bb\
.	32aa\
.	32gg\JJJ
!!LO:LB:g=original
=6	=6
8cL 8G 8E 8C\	16cccLL 16ee\
.	16gg 16ee\
8cJ 8G 8E 8C\	16gg 16ee\
.	16ggJJ 16ee\
8c 8G 8E 8C\	16aaLL 16ff\
.	16gg 16ee\
8r	16ff 16dd\
.	16eeJJ 16cc\
=7	=7
!LO:TX:a:t=P:problem:mixed beam	!
16GG/LL	16ddLL 16b\
16G\JJ	16gg\
16C\LL	16ee\
16c\JJ	16cc\JJ
16GG\LL	16ddLL 16b\
16G\	16gg\
16C\	16ee\
16c\JJ	16cc\JJ
=8	=8
8GL 8GG/	8ddL 8b\
8G 8GG/	8gg 8dd 8b\
8GJ 8GG/	8ggJ 8dd 8b\
8ryy	8r
=9:|!|:	=9:|!|:
8GL 8GG/	16ggLL 16dd 16b\
.	16b 16g\
8GJ 8GG/	16cc 16a\
.	16ddJJ 16b\
8G 8GG/	16eeLL 16cc\
.	16ffJ 16dd\
8r	8ffJ 8dd\
=10	=10
8GL 8GG/	16ffLL 16dd\
.	16ee 16cc\
8GJ 8GG/	16ff 16dd\
.	16eeJJ 16cc\
8G 8GG/	4ff 4dd\
8r	.
=11	=11
4c 4C\	16eeLL 16cc\
.	16dd 16b\
.	16ee 16cc\
.	16ffJJ 16dd\
8cL 8C\	16ggLL 16ee\
.	16ee 16cc\
8G#X\J	16ff 16dd\
.	16aaJJ 16ff\
=12	=12
8cL 8C\	16ggLL 16ee\
.	16ee 16cc\
8GJ 8GG\	16ff 16dd\
.	16aaJJ 16ff\
4C 4CC/	4gg 4ee\
=13	=13
8FL 8FF/	8aaL 8ff\
!	!LO:TUP:a
!	!LO:TUP:a:problem:klamra łukowa
8FJ 8FF/	24aaL 24ff\
.	24bb\
.	24ccc#X\JJ
4F 4FF/	4ddd 4ff\
=14	=14
8EL 8EE/	8ggL 8ee\
!	!LO:TUP:a
!	!LO:TUP:a:problem:klamra łukowa
8EJ 8EE/	24ggL 24ee\
.	24aa\
.	24bb\JJ
4E 4EE/	4ccc 4ee\
=15	=15
*clefG2	*
8dL 8B 8G/	16ddLL 16b\
.	16dd 16b\
8eJ 8G/	16ee 16cc\
.	16eeJJ 16cc\
8fL 8d 8G/	16ffLL 16dd\
.	16ff 16dd\
8eJ 8c 8G/	16ee 16cc\
.	16eeJJ 16cc\
!!LO:LB:g=original
=16	=16
8dL 8B 8G/	8ddL 8b\
8dJ 8B 8G/	8gg 8b\
8d 8B 8G/	8ggJ 8b\
8r	8r
=17	=17
*clefF4	*
8CL 8CC/	8eeL 8cc\
8CJ 8CC/	16cccL 16ee\
.	16cccJJ 16ee\
4C 4CC/	16cccLL 16ee\
.	16bb 16gg\
.	16aa 16ff\
.	16ggJJ 16ee\
=18	=18
4F 4FF/	16ffLL 16dd\
.	16gg 16ee\
.	16ff 16dd\
.	16ggJJ 16ee\
8FL 8FF/	16aaLL 16ff\
.	16gg 16ee\
8FJ 8FF/	16aa 16ff\
.	16ffJJ 16dd\
=19	=19
!LO:TX:a:t=P:problem:mixed beam	!
8E\L	8ggL 8ee\
8F\	16aaL 16ff\
.	16ffJJ 16dd\
8G\	8eeL 8cc\
8GG/J	8ddJ 8b\
=20	=20
8C/L	8cc\L
8GG/J	16cccL 16ee\
.	16cccJJ 16ee\
8CC/	8ccc 8ee\
8r	8r
==;>	==;>
*-	*-
!!!system-decoration: {(s1,s2)}
!!!RDF**kern: > = above
!!!RDF**kern: < = below
!!!EED: Mateusz Mrugas
!!!EST: 2020-11-23
!!!ENC: Marcin Jachim
!!!END: 2020-06-14
